assets/svg/wallet_icon_wallet_report.svg

<svg width="80" height="80" viewBox="0 0 80 80" fill="none" xmlns="http://www.w3.org/2000/svg">
<path d="M17.2297 21.7922V64.1828C17.2297 67.3047 19.7609 69.8359 22.8828 69.8359H51.6594C53.425 69.8359 55.0625 70.7594 55.9766 72.2719H16.7516C15.8141 72.2719 15.0531 71.5125 15.0531 70.5734V17.6406L15.1953 17.7469C15.8265 18.2157 16.3392 18.8258 16.6924 19.5282C17.0457 20.2306 17.2297 21.0059 17.2297 21.7922Z" fill="#E1EAF8"/>
<path d="M47.0516 5.05234H60.0125C61.5203 5.05234 62.7469 6.27891 62.7469 7.78672V37.9531C62.7469 38.2552 62.502 38.5 62.2 38.5C61.898 38.5 61.6531 38.2552 61.6531 37.9531V7.78672C61.6531 6.88203 60.9172 6.14609 60.0125 6.14609H47.0516H26.9469H13.9859C13.0813 6.14609 12.3453 6.88203 12.3453 7.78672V16.3898C12.3453 16.6914 12.1 16.9367 11.7984 16.9367C11.4969 16.9367 11.2516 16.6914 11.2516 16.3898V7.78672C11.2516 6.27891 12.4781 5.05234 13.9859 5.05234H26.9469H47.0516Z" fill="#9A9A9A"/>
<path d="M15.4359 8.27734H26.9469H44.7859C45.0875 8.27734 45.332 8.52184 45.332 8.82344C45.332 9.12504 45.0875 9.36953 44.7859 9.36953H26.9453H15.5687V71.7273H58.4281V67.6848C58.4281 67.3827 58.673 67.1379 58.975 67.1379C59.277 67.1379 59.5219 67.3827 59.5219 67.6848V71.8617C59.5219 72.3914 59.0906 72.8227 58.5609 72.8227H15.4359C14.9063 72.8227 14.475 72.3914 14.475 71.8617V9.23828C14.475 8.70859 14.9063 8.27734 15.4359 8.27734Z" fill="#9A9A9A"/>
<path d="M58.5609 8.27578C59.0906 8.27578 59.5219 8.70703 59.5219 9.23672V38.002C59.5219 38.3041 59.2768 38.549 58.9746 38.5488C58.6727 38.5486 58.4281 38.3038 58.4281 38.002V9.36953H50.0828C49.7812 9.36953 49.5359 9.12422 49.5359 8.82266C49.5359 8.52109 49.7812 8.27578 50.0828 8.27578H58.5609Z" fill="#9A9A9A"/>
<path d="M60.0125 74.9523C60.9172 74.9523 61.6531 74.2164 61.6531 73.3117V67.6848C61.6531 67.3827 61.898 67.1379 62.2 67.1379C62.502 67.1379 62.7469 67.3827 62.7469 67.6848V73.3117C62.7469 74.8195 61.5203 76.0461 60.0125 76.0461H13.9844C12.4766 76.0461 11.25 74.8195 11.25 73.3117V20.6008C11.25 20.2992 11.4953 20.0539 11.7969 20.0539C12.0984 20.0539 12.3438 20.2992 12.3438 20.6008V73.3117C12.3438 74.2164 13.0797 74.9523 13.9844 74.9523H60.0125Z" fill="#9A9A9A"/>
<path d="M44.1797 40.6777H21.1875C20.8859 40.6777 20.6406 40.923 20.6406 41.2246C20.6406 41.5262 20.8859 41.7715 21.1875 41.7715H44.1781C44.4797 41.7715 44.725 41.5262 44.725 41.2246C44.725 40.923 44.4813 40.6777 44.1797 40.6777ZM21.1875 46.2715H42.1953C42.4969 46.2715 42.7422 46.0262 42.7422 45.7246C42.7422 45.423 42.4969 45.1777 42.1953 45.1777H21.1875C20.8859 45.1777 20.6406 45.423 20.6406 45.7246C20.6406 46.0262 20.8859 46.2715 21.1875 46.2715ZM44.7266 53.5277C44.7266 53.2262 44.4813 52.9809 44.1797 52.9809H21.1875C20.8859 52.9809 20.6406 53.2262 20.6406 53.5277C20.6406 53.8293 20.8859 54.0746 21.1875 54.0746H44.1781C44.4813 54.0746 44.7266 53.8293 44.7266 53.5277ZM21.1875 57.4793C20.8859 57.4793 20.6406 57.7246 20.6406 58.0262C20.6406 58.3277 20.8859 58.573 21.1875 58.573H42.1953C42.4969 58.573 42.7422 58.3277 42.7422 58.0262C42.7422 57.7246 42.4969 57.4793 42.1953 57.4793H21.1875Z" fill="#9A9A9A"/>
<circle cx="61.5" cy="53" r="11" fill="#0166FF"/>
<path d="M57.5 53L60.5 56L66.5 50" stroke="white" stroke-width="1.2" stroke-linecap="round" stroke-linejoin="round"/>
<path d="M30.9099 31.2232C30.6752 31.4571 30.6747 31.837 30.9087 32.0717C31.1427 32.3063 31.5226 32.3069 31.7572 32.0729L30.9099 31.2232ZM42.2397 19.9256L30.9099 31.2232L31.7572 32.0729L43.087 20.7753L42.2397 19.9256ZM44.4 26.0008C44.4 30.0877 41.0869 33.4008 37 33.4008V34.6008C41.7496 34.6008 45.6 30.7504 45.6 26.0008H44.4ZM37 33.4008C32.9131 33.4008 29.6 30.0877 29.6 26.0008H28.4C28.4 30.7504 32.2504 34.6008 37 34.6008V33.4008ZM29.6 26.0008C29.6 21.9139 32.9131 18.6008 37 18.6008V17.4008C32.2504 17.4008 28.4 21.2511 28.4 26.0008H29.6ZM37 18.6008C41.0869 18.6008 44.4 21.9139 44.4 26.0008H45.6C45.6 21.2511 41.7496 17.4008 37 17.4008V18.6008Z" fill="#9A9A9A"/>
</svg>

<svg xmlns="http://www.w3.org/2000/svg" width="80" height="80" fill="none"><path fill="#E1EAF8" d="M17.23 21.792v42.39a5.653 5.653 0 0 0 5.653 5.654h28.776c1.766 0 3.404.923 4.318 2.436H16.752c-.938 0-1.699-.76-1.699-1.699V17.641l.142.106a5.04 5.04 0 0 1 2.035 4.045"/><path fill="#9A9A9A" d="M47.052 5.052h12.96a2.737 2.737 0 0 1 2.735 2.735v30.166a.547.547 0 1 1-1.094 0V7.787c0-.905-.736-1.64-1.64-1.64H13.986c-.905 0-1.64.735-1.64 1.64v8.603a.547.547 0 0 1-1.094 0V7.787a2.737 2.737 0 0 1 2.734-2.735h33.066"/><path fill="#9A9A9A" d="M15.436 8.277h29.35a.546.546 0 0 1 0 1.093H15.569v62.357h42.86v-4.042a.547.547 0 1 1 1.093 0v4.177c0 .53-.431.96-.961.96H15.436a.96.96 0 0 1-.961-.96V9.238c0-.53.431-.96.96-.96M58.56 8.276c.53 0 .962.431.962.96v28.766a.547.547 0 0 1-1.094 0V9.37h-8.345a.547.547 0 0 1 0-1.094z"/><path fill="#9A9A9A" d="M60.013 74.952c.904 0 1.64-.736 1.64-1.64v-5.627a.547.547 0 1 1 1.094 0v5.627a2.737 2.737 0 0 1-2.734 2.734H13.984a2.737 2.737 0 0 1-2.734-2.734V20.6a.547.547 0 0 1 1.094 0v52.71c0 .905.736 1.641 1.64 1.641z"/><path fill="#9A9A9A" d="M44.18 40.678H21.188a.547.547 0 0 0 0 1.094h22.99a.547.547 0 0 0 .002-1.094m-22.992 5.594h21.007a.547.547 0 0 0 0-1.094H21.188a.547.547 0 0 0 0 1.094m23.539 7.256a.547.547 0 0 0-.547-.547H21.188a.547.547 0 0 0 0 1.094h22.99a.55.55 0 0 0 .549-.547m-23.54 3.951a.547.547 0 0 0 0 1.094h21.008a.547.547 0 0 0 0-1.094z"/><circle cx="61.5" cy="53" r="11" fill="#0166FF"/><path stroke="#fff" stroke-linecap="round" stroke-linejoin="round" stroke-width="1.2" d="m57.5 53 3 3 6-6"/><path fill="#9A9A9A" d="M30.91 31.223a.6.6 0 1 0 .847.85zm11.33-11.297L30.91 31.223l.847.85 11.33-11.298zM44.4 26a7.4 7.4 0 0 1-7.4 7.4v1.2a8.6 8.6 0 0 0 8.6-8.6zM37 33.4a7.4 7.4 0 0 1-7.4-7.4h-1.2a8.6 8.6 0 0 0 8.6 8.6zM29.6 26a7.4 7.4 0 0 1 7.4-7.4v-1.2a8.6 8.6 0 0 0-8.6 8.6zm7.4-7.4a7.4 7.4 0 0 1 7.4 7.4h1.2a8.6 8.6 0 0 0-8.6-8.6z"/></svg>
